X:1371
T:The Ivy Leaf
R:Reel
N:2nd Setting
N:Collected by F. O'Neill
B:O'Neill's 1371
Z:Transcribed by Trish O'Neil
M:C|
L:1/8
K:A
A2(ed) cdec|A2(ec) dBGB|A2(ed) cdeA|AGEF GABG:|
(ea)ag edBd|gfgd BGBd|(ea)ag edBA|AGEF GABG|
(ea)ag edBd|gfgd BGBd|AGAB cBcd|egfa ged"D.C."B|]


